X:378
T:
R:polska
S:Efter »Florsen» i Burs.
O:Gotland, Burs
M:3/4
L:1/16
K:G
D2|GFGB AGAc c2B2|BGBd gfdf a2g2|c2ec B2dB A2cA|GFGB AGFE E2 D2|
GFGB AGAc c2B2|BGBd gfdf a2g2|c2ec cBdB Acec|BAGF F4 G2::
D2|G2Ac B2[G,2D2B2][G,2D2B2][G,2D2B2]|Bdgf edcB AGFE|
DEFG A2[A,2E2A2][A,2E2A2][A,2E2A2]|Acec BAGF F2G2|
(BG,)(Bd) (BG,)(Bd) (BG,)(Bd)|(cG,)(cd) (cG,)(cd) (cG,)(cd)|
(BG,)(Bd) (BG,)(Bd) (BG,)(Bd)|(cG,)(cd) (cG,)(cd) c2 D2|
GABc defg fdec|BcAF A3G G2:|

